usr/share/icons/big-icons/symbolic/actions/view-readermode.svg

<svg xmlns="http://www.w3.org/2000/svg" viewBox="0 0 16 16">
  <defs id="defs3051">
    <style type="text/css" id="current-color-scheme">
      .ColorScheme-Text {
        color:#eff0f1;
      }
      </style>
  </defs>
 <path style="fill:currentColor;fill-opacity:1;stroke:none" 
       d="M 5 3 C 3 3 1.97917 4.5 1 4.5 C 0.0208 4.5 0 4 0 4 L 0 12 C 0 12 -0.0417 12.5 1 12.5 C 2.04167 12.5 3 11 5 11 C 7 11 8 12 8 12 C 8 12 9 11 11 11 C 13 11 13.89583 12.5 15 12.5 C 16.10417 12.5 16 12 16 12 L 16 4.0625 C 15.9629 4.2031 15.78125 4.5 15 4.5 C 13.95833 4.5 13 3 11 3 C 9 3 8 4 8 4 C 8 4 7 3 5 3 z M 5 4 C 5.83333 4 6.9477275 4.38525 7.28125 4.71875 C 7.647717 4.99995 8.352283 4.99995 8.71875 4.71875 C 8.989183 4.44835 10.16667 4 11 4 C 13 4 13.3125 5.5 15 5.5 L 15 11.5 C 14.138351 11.5 13.144932 10 11 10 C 9.83333 10 8.589844 10.2227 8 10.8125 C 7.4395 10.252 6.16667 10 5 10 C 2.9489806 10 1.6429856 11.5 1 11.5 L 1 5.5 C 2.53147 5.5 3 4 5 4 z "
     class="ColorScheme-Text"
     />
</svg>

<svg xmlns="http://www.w3.org/2000/svg" viewBox="0 0 16 16">
<defs id="defs3051">
<style id="current-color-scheme" type="text/css">
.ColorScheme-Text{color:#fcfcfc}
</style>
</defs>
<path d="M5 3C3 3 1.98 4.5 1 4.5S0 4 0 4v8s-.042.5 1 .5S3 11 5 11s3 1 3 1 1-1 3-1 2.896 1.5 4 1.5 1-.5 1-.5V4.063c-.037.14-.219.437-1 .437-1.042 0-2-1.5-4-1.5S8 4 8 4 7 3 5 3m0 1c.833 0 1.948.385 2.281.719.367.28 1.071.28 1.438 0C8.989 4.449 10.167 4 11 4c2 0 2.313 1.5 4 1.5v6c-.862 0-1.855-1.5-4-1.5-1.167 0-2.41.223-3 .813C7.44 10.252 6.167 10 5 10c-2.051 0-3.357 1.5-4 1.5v-6C2.531 5.5 3 4 5 4" class="ColorScheme-Text" style="fill:currentColor;fill-opacity:1;stroke:none"/>
</svg>
